symbols/web/content_copy/materialsymbolsoutlined/content_copy_wght100grad200_48px.svg

<svg xmlns="http://www.w3.org/2000/svg" height="48" width="48"><path d="M12.9 41.8q-1.4 0-2.375-1-.975-1-.975-2.35v-23.1h1.75v23.1q0 .6.5 1.1.5.5 1.1.5h16.9v1.75Zm6.1-6.1q-1.4 0-2.375-1-.975-1-.975-2.35v-22.2q0-1.4.975-2.375Q17.6 6.8 19 6.8h16.15q1.4 0 2.375.975.975.975.975 2.375v22.2q0 1.35-.975 2.35t-2.375 1Zm0-1.75h16.15q.6 0 1.1-.5.5-.5.5-1.1v-22.2q0-.6-.5-1.1-.5-.5-1.1-.5H19q-.6 0-1.1.5-.5.5-.5 1.1v22.2q0 .6.5 1.1.5.5 1.1.5Zm-1.6 0V8.55 33.95Z"/></svg>

<svg xmlns="http://www.w3.org/2000/svg" height="48" width="48"><path d="M19 35.7Q17.6 35.7 16.625 34.7Q15.65 33.7 15.65 32.35V10.15Q15.65 8.75 16.625 7.775Q17.6 6.8 19 6.8H35.15Q36.55 6.8 37.525 7.775Q38.5 8.75 38.5 10.15V32.35Q38.5 33.7 37.525 34.7Q36.55 35.7 35.15 35.7ZM19 33.95H35.15Q35.75 33.95 36.25 33.45Q36.75 32.95 36.75 32.35V10.15Q36.75 9.55 36.25 9.05Q35.75 8.55 35.15 8.55H19Q18.4 8.55 17.9 9.05Q17.4 9.55 17.4 10.15V32.35Q17.4 32.95 17.9 33.45Q18.4 33.95 19 33.95ZM12.9 41.8Q11.5 41.8 10.525 40.8Q9.55 39.8 9.55 38.45V15.35H11.3V38.45Q11.3 39.05 11.8 39.55Q12.3 40.05 12.9 40.05H29.8V41.8ZM17.4 8.55Q17.4 8.55 17.4 8.975Q17.4 9.4 17.4 10.15V32.35Q17.4 33 17.4 33.475Q17.4 33.95 17.4 33.95Q17.4 33.95 17.4 33.475Q17.4 33 17.4 32.35V10.15Q17.4 9.4 17.4 8.975Q17.4 8.55 17.4 8.55Z"/></svg>
